symbolic/24x24/panel/megawarning.svg

<svg xmlns="http://www.w3.org/2000/svg" width="24" height="24" version="1.1">
 <defs>
  <style id="current-color-scheme" type="text/css">
   .ColorScheme-Text { color:#323a41; } .ColorScheme-Highlight { color:#4285f4; } .ColorScheme-NeutralText { color:#ff9800; } .ColorScheme-PositiveText { color:#4caf50; } .ColorScheme-NegativeText { color:#f44336; }
  </style>
 </defs>
 <g transform="translate(1,1.0002371)" style="fill:currentColor" class="ColorScheme-Text">
  <path style="fill:currentColor" class="ColorScheme-Text" d="m 11,3 c -4.4177135,0 -8,3.578744 -8,8 0,4.417713 3.5787438,8 8,8 0.326401,0 0.646718,-0.02453 0.962891,-0.0625 A 5,5 0 0 1 11,16 5,5 0 0 1 13,12.007812 L 13,11.5 12,13 10,13 9,11.5 9,14 7,14 7,8 l 2,0 2,3 2,-3 2,0 0,3.105469 A 5,5 0 0 1 16,11 5,5 0 0 1 18.9375,11.960938 C 18.975324,11.645309 19,11.325879 19,11 19,6.5822866 15.421256,3 11,3 Z"/>
 </g>
 <path style="fill:currentColor" class="ColorScheme-NeutralText" d="M 17.279297,13.008049 C 16.510764,12.953728 15.717412,13.121168 15,13.535393 c -1.9132,1.1046 -2.567391,3.551644 -1.462891,5.464844 1.1045,1.9131 3.549791,2.567491 5.462891,1.462891 1.9132,-1.1046 2.569344,-3.549691 1.464844,-5.462891 -0.690313,-1.195688 -1.904658,-1.901651 -3.185547,-1.992188 z M 15.585938,14.879143 17,16.293206 l 1.414062,-1.414063 0.707032,0.707032 -1.414063,1.414062 1.414063,1.414062 -0.707032,0.707032 L 17,17.707268 l -1.414062,1.414063 -0.707032,-0.707032 1.414063,-1.414062 -1.414063,-1.414062 0.707032,-0.707032 z"/>
</svg>

<svg xmlns="http://www.w3.org/2000/svg" width="24" height="24"><defs><style id="current-color-scheme" type="text/css">.ColorScheme-Text{color:#323a41}</style></defs><g style="fill:currentColor" class="ColorScheme-Text"><path style="fill:currentColor" class="ColorScheme-Text" d="M11 3c-4.418 0-8 3.579-8 8 0 4.418 3.579 8 8 8 .326 0 .647-.025.963-.063A5 5 0 0 1 11 16a5 5 0 0 1 2-3.992V11.5L12 13h-2l-1-1.5V14H7V8h2l2 3 2-3h2v3.105A5 5 0 0 1 16 11a5 5 0 0 1 2.938.96c.037-.315.062-.634.062-.96 0-4.418-3.579-8-8-8z" transform="translate(1 1)"/></g><path style="fill:currentColor;color:#ff9800" d="M17.28 13.008a4 4 0 1 0-.556 7.983 4 4 0 0 0 .555-7.983zm-1.694 1.871L17 16.293l1.414-1.414.707.707L17.707 17l1.414 1.414-.707.707L17 17.707l-1.414 1.414-.707-.707L16.293 17l-1.414-1.414.707-.707z"/></svg>
